src/food-drink/food-prepared/1F9C7.svg

<svg id="emoji" viewBox="0 0 72 72" xmlns="http://www.w3.org/2000/svg">
  <g id="grid">
    <path fill="#b3b3b3" d="M68,4V68H4V4H68m4-4H0V72H72V0Z"/>
    <path fill="none" stroke="#00a5ff" stroke-miterlimit="10" stroke-width="0.1" d="M12.923,10.9583H59.0769A1.9231,1.9231,0,0,1,61,12.8814V59.0352a1.9231,1.9231,0,0,1-1.9231,1.9231H12.9231A1.9231,1.9231,0,0,1,11,59.0352V12.8813A1.923,1.923,0,0,1,12.923,10.9583Z"/>
    <rect x="16" y="4" rx="2.2537" width="40" height="64" fill="none" stroke="#00a5ff" stroke-miterlimit="10" stroke-width="0.1"/>
    <rect x="16" y="4" rx="2.2537" width="40" height="64" transform="translate(72) rotate(90)" fill="none" stroke="#00a5ff" stroke-miterlimit="10" stroke-width="0.1"/>
    <circle cx="36" cy="36" r="29" fill="none" stroke="#00a5ff" stroke-miterlimit="10" stroke-width="0.1"/>
  </g>
  <g id="color">
    <g>
      <rect x="11.9698" y="11.9299" rx="1.9608" width="47.9343" height="47.9343" fill="#f4aa41"/>
      <path fill="#e27022" d="M58.5517,12.5333H14.5389a1.9607,1.9607,0,0,0-1.9607,1.9608v3.5181H48.0065a1.9607,1.9607,0,0,1,1.9607,1.9607V60.4676h8.5845a1.9607,1.9607,0,0,0,1.9607-1.9608V14.4941A1.9607,1.9607,0,0,0,58.5517,12.5333Z"/>
      <path fill="#e27022" d="M24.9477,19.6574H19.7133a.2332.2332,0,0,0-.2332.2331v.9013h3.8912a.2332.2332,0,0,1,.2332.2331v4.3332h1.3432a.2332.2332,0,0,0,.2332-.2332V19.8905A.2332.2332,0,0,0,24.9477,19.6574Z"/>
      <path fill="#e27022" d="M38.5541,19.6574H33.32a.2332.2332,0,0,0-.2332.2331v.9013h3.8911a.2332.2332,0,0,1,.2332.2331v4.3332h1.3432a.2332.2332,0,0,0,.2333-.2332V19.8905A.2332.2332,0,0,0,38.5541,19.6574Z"/>
      <path fill="#e27022" d="M51.8732,19.6574H46.6388a.2331.2331,0,0,0-.2331.2331v.9013h3.8911a.2332.2332,0,0,1,.2332.2331v4.3332h1.3432a.2332.2332,0,0,0,.2332-.2332V19.8905A.2332.2332,0,0,0,51.8732,19.6574Z"/>
      <path fill="#e27022" d="M24.9477,33.3585H19.7133a.2332.2332,0,0,0-.2332.2332v.9012h3.8912a.2332.2332,0,0,1,.2332.2332v4.3332h1.3432a.2332.2332,0,0,0,.2332-.2333V33.5917A.2332.2332,0,0,0,24.9477,33.3585Z"/>
      <path fill="#e27022" d="M38.5384,33.3743H33.304a.2332.2332,0,0,0-.2332.2331v.9013H36.962a.2332.2332,0,0,1,.2332.2331V39.075h1.3432a.2332.2332,0,0,0,.2332-.2332V33.6074A.2332.2332,0,0,0,38.5384,33.3743Z"/>
      <path fill="#e27022" d="M51.8852,33.3585H46.6508a.2333.2333,0,0,0-.2332.2332v.9012h3.8912a.2332.2332,0,0,1,.2332.2332v4.3332h1.3432a.2332.2332,0,0,0,.2332-.2333V33.5917A.2332.2332,0,0,0,51.8852,33.3585Z"/>
      <path fill="#e27022" d="M24.9477,47.06H19.7133a.2332.2332,0,0,0-.2332.2332v.9012h3.8912a.2332.2332,0,0,1,.2332.2332V52.76h1.3432a.2332.2332,0,0,0,.2332-.2332V47.2928A.2332.2332,0,0,0,24.9477,47.06Z"/>
      <path fill="#e27022" d="M38.5541,47.06H33.32a.2332.2332,0,0,0-.2332.2332v.9012h3.8911a.2332.2332,0,0,1,.2332.2332V52.76h1.3432a.2332.2332,0,0,0,.2333-.2332V47.2928A.2332.2332,0,0,0,38.5541,47.06Z"/>
      <path fill="#e27022" d="M51.8873,47.06H46.6529a.2332.2332,0,0,0-.2332.2332v.9012h3.8912a.2332.2332,0,0,1,.2332.2332V52.76h1.3432a.2332.2332,0,0,0,.2332-.2332V47.2928A.2332.2332,0,0,0,51.8873,47.06Z"/>
    </g>
  </g>
  <g id="line">
    <g>
      <rect x="11.9698" y="11.9299" rx="1.9608" width="47.9343" height="47.9343" fill="none" stroke="#000" stroke-miterlimit="10" stroke-width="2"/>
      <rect x="18.798" y="18.8517" rx="0.2991" width="7.312" height="7.312" fill="none" stroke="#000" stroke-miterlimit="10" stroke-width="2"/>
      <rect x="32.4141" y="18.8517" rx="0.2991" width="7.312" height="7.312" fill="none" stroke="#000" stroke-miterlimit="10" stroke-width="2"/>
      <rect x="45.7829" y="18.8517" rx="0.2991" width="7.312" height="7.312" fill="none" stroke="#000" stroke-miterlimit="10" stroke-width="2"/>
      <rect x="18.798" y="32.4556" rx="0.2991" width="7.312" height="7.312" fill="none" stroke="#000" stroke-miterlimit="10" stroke-width="2"/>
      <rect x="32.4141" y="32.4556" rx="0.2991" width="7.312" height="7.312" fill="none" stroke="#000" stroke-miterlimit="10" stroke-width="2"/>
      <rect x="45.7829" y="32.4556" rx="0.2991" width="7.312" height="7.312" fill="none" stroke="#000" stroke-miterlimit="10" stroke-width="2"/>
      <rect x="18.798" y="46.254" rx="0.2991" width="7.312" height="7.312" fill="none" stroke="#000" stroke-miterlimit="10" stroke-width="2"/>
      <rect x="32.4141" y="46.254" rx="0.2991" width="7.312" height="7.312" fill="none" stroke="#000" stroke-miterlimit="10" stroke-width="2"/>
      <rect x="45.7829" y="46.254" rx="0.2991" width="7.312" height="7.312" fill="none" stroke="#000" stroke-miterlimit="10" stroke-width="2"/>
    </g>
  </g>
</svg>

<svg viewBox="0 0 72 72" xmlns="http://www.w3.org/2000/svg"><path fill="#b3b3b3" d="M68 4v64H4V4h64m4-4H0v72h72V0z"/><path fill="none" stroke="#00a5ff" stroke-miterlimit="10" stroke-width=".1" d="M12.923 10.958h46.154A1.923 1.923 0 0161 12.881v46.154a1.923 1.923 0 01-1.923 1.923H12.923A1.923 1.923 0 0111 59.035V12.881a1.923 1.923 0 011.923-1.923z"/><rect x="16" y="4" rx="2.254" width="40" height="64" fill="none" stroke="#00a5ff" stroke-miterlimit="10" stroke-width=".1"/><rect x="16" y="4" rx="2.254" width="40" height="64" transform="rotate(90 36 36)" fill="none" stroke="#00a5ff" stroke-miterlimit="10" stroke-width=".1"/><circle cx="36" cy="36" r="29" fill="none" stroke="#00a5ff" stroke-miterlimit="10" stroke-width=".1"/><g stroke-linecap="round" stroke-miterlimit="10" stroke-width="6" stroke="#fff" fill="none" stroke-linejoin="round"><rect x="11.97" y="11.93" rx="1.961" width="47.934" height="47.934"/><rect x="18.798" y="18.852" rx=".299" width="7.312" height="7.312"/><rect x="32.414" y="18.852" rx=".299" width="7.312" height="7.312"/><rect x="45.783" y="18.852" rx=".299" width="7.312" height="7.312"/><rect x="18.798" y="32.456" rx=".299" width="7.312" height="7.312"/><rect x="32.414" y="32.456" rx=".299" width="7.312" height="7.312"/><rect x="45.783" y="32.456" rx=".299" width="7.312" height="7.312"/><rect x="18.798" y="46.254" rx=".299" width="7.312" height="7.312"/><rect x="32.414" y="46.254" rx=".299" width="7.312" height="7.312"/><rect x="45.783" y="46.254" rx=".299" width="7.312" height="7.312"/></g><rect x="11.97" y="11.93" rx="1.961" width="47.934" height="47.934" fill="#f4aa41"/><path fill="#e27022" d="M58.552 12.533H14.539a1.96 1.96 0 00-1.96 1.961v3.518h35.428a1.96 1.96 0 011.96 1.96v40.496h8.585a1.96 1.96 0 001.96-1.961V14.494a1.96 1.96 0 00-1.96-1.96z"/><path fill="#e27022" d="M24.948 19.657h-5.235a.233.233 0 00-.233.233v.902h3.891a.233.233 0 01.234.233v4.333h1.343a.233.233 0 00.233-.233V19.89a.233.233 0 00-.233-.233zm13.606 0H33.32a.233.233 0 00-.233.233v.902h3.89a.233.233 0 01.234.233v4.333h1.343a.233.233 0 00.234-.233V19.89a.233.233 0 00-.234-.233zm13.319 0H46.64a.233.233 0 00-.233.233v.902h3.89a.233.233 0 01.234.233v4.333h1.343a.233.233 0 00.233-.233V19.89a.233.233 0 00-.233-.233zM24.948 33.358h-5.235a.233.233 0 00-.233.234v.9h3.891a.233.233 0 01.234.234v4.333h1.343a.233.233 0 00.233-.233v-5.234a.233.233 0 00-.233-.233zm13.59.016h-5.234a.233.233 0 00-.233.233v.902h3.891a.233.233 0 01.233.233v4.333h1.343a.233.233 0 00.234-.233v-5.235a.233.233 0 00-.234-.233zm13.347-.016h-5.234a.233.233 0 00-.233.234v.9h3.89a.233.233 0 01.234.234v4.333h1.343a.233.233 0 00.233-.233v-5.234a.233.233 0 00-.233-.233zM24.948 47.06h-5.235a.233.233 0 00-.233.233v.901h3.891a.233.233 0 01.234.234v4.332h1.343a.233.233 0 00.233-.233v-5.234a.233.233 0 00-.233-.233zm13.606 0H33.32a.233.233 0 00-.233.233v.901h3.89a.233.233 0 01.234.234v4.332h1.343a.233.233 0 00.234-.233v-5.234a.233.233 0 00-.234-.233zm13.333 0h-5.234a.233.233 0 00-.233.233v.901h3.89a.233.233 0 01.234.234v4.332h1.343a.233.233 0 00.234-.233v-5.234a.233.233 0 00-.234-.233z"/><g><g fill="none" stroke="#000" stroke-miterlimit="10" stroke-width="2"><rect x="11.97" y="11.93" rx="1.961" width="47.934" height="47.934"/><rect x="18.798" y="18.852" rx=".299" width="7.312" height="7.312"/><rect x="32.414" y="18.852" rx=".299" width="7.312" height="7.312"/><rect x="45.783" y="18.852" rx=".299" width="7.312" height="7.312"/><rect x="18.798" y="32.456" rx=".299" width="7.312" height="7.312"/><rect x="32.414" y="32.456" rx=".299" width="7.312" height="7.312"/><rect x="45.783" y="32.456" rx=".299" width="7.312" height="7.312"/><rect x="18.798" y="46.254" rx=".299" width="7.312" height="7.312"/><rect x="32.414" y="46.254" rx=".299" width="7.312" height="7.312"/><rect x="45.783" y="46.254" rx=".299" width="7.312" height="7.312"/></g></g></svg>
